svg/u1f4a4.svg

<svg viewBox="0 0 128 128" xmlns="http://www.w3.org/2000/svg">
  <g>
    <path d="M59.01,92.53c-1.16-3.05-4.71-4.54-7.91-3.32l-16.78,6.38L44.5,59.35c0.36-1.27,0.3-2.58-0.16-3.8 c-1.23-3.23-4.99-4.81-8.39-3.51L8.1,62.62c-1.54,0.58-2.77,1.7-3.48,3.13c-0.73,1.48-0.82,3.13-0.25,4.64 c1.16,3.06,4.73,4.56,7.95,3.34l16.23-6.17L18.28,103.6c-0.37,1.3-0.32,2.64,0.15,3.88c0.95,2.5,3.4,4.02,6.04,4.02 c0.82,0,1.66-0.15,2.48-0.46l28.36-10.78C58.51,99.04,60.17,95.57,59.01,92.53z" fill="#176BC6"/>
    <path d="M92.6,61.82c-0.56-3.29-3.83-5.48-7.28-4.9L67.21,60L84.6,25.63c0.61-1.21,0.81-2.54,0.59-3.85 c-0.59-3.49-4.06-5.81-7.73-5.19L47.4,21.72c-1.66,0.28-3.12,1.15-4.12,2.46c-1.03,1.35-1.44,2.98-1.17,4.61 c0.56,3.31,3.85,5.51,7.32,4.92l17.52-2.98L49.5,64.88c-0.63,1.23-0.84,2.59-0.61,3.93c0.46,2.7,2.62,4.71,5.27,5.23 c0.82,0.16,1.69,0.18,2.58,0.03l30.61-5.21C90.8,68.27,93.16,65.11,92.6,61.82z" fill="#176BC6"/>
    <path d="M123.94,74.46c-0.18-2.13-2.15-3.71-4.39-3.52l-11.74,0.99l12.97-21.01 c0.46-0.74,0.66-1.58,0.59-2.42c-0.19-2.26-2.28-3.93-4.65-3.73L97.25,46.4c-1.07,0.09-2.05,0.57-2.76,1.35 c-0.73,0.8-1.08,1.83-0.99,2.88c0.18,2.14,2.16,3.73,4.41,3.54l11.35-0.96l-13,20.86c-0.47,0.75-0.68,1.61-0.6,2.47 c0.15,1.75,1.42,3.15,3.08,3.63c0.52,0.15,1.07,0.21,1.64,0.16l19.83-1.67C122.45,78.48,124.12,76.59,123.94,74.46z" fill="#176BC6"/>
  </g>
</svg>

<svg viewBox="0 0 128 128" xmlns="http://www.w3.org/2000/svg">
  <defs/>
  <path d="M59.01,92.53 C57.85,89.48 54.3,87.99 51.1,89.21 L34.32,95.59 L44.5,59.35 C44.86,58.08 44.8,56.77 44.34,55.55 C43.11,52.32 39.35,50.74 35.95,52.04 L8.1,62.62 C6.56,63.2 5.33,64.32 4.62,65.75 C3.89,67.23 3.8,68.88 4.37,70.39 C5.53,73.45 9.1,74.95 12.32,73.73 L28.55,67.56 L18.28,103.6 C17.91,104.9 17.96,106.24 18.43,107.48 C19.38,109.98 21.83,111.5 24.47,111.5 C25.29,111.5 26.13,111.35 26.95,111.04 L55.31,100.26 C58.51,99.04 60.17,95.57 59.01,92.53 Z" fill="#176BC6"/>
  <path d="M92.6,61.82 C92.04,58.53 88.77,56.34 85.32,56.92 L67.21,60 L84.6,25.63 C85.21,24.42 85.41,23.09 85.19,21.78 C84.6,18.29 81.13,15.97 77.46,16.59 L47.4,21.72 C45.74,22 44.28,22.87 43.28,24.18 C42.25,25.53 41.84,27.16 42.11,28.79 C42.67,32.1 45.96,34.3 49.43,33.71 L66.95,30.73 L49.5,64.88 C48.87,66.11 48.66,67.47 48.89,68.81 C49.35,71.51 51.51,73.52 54.16,74.04 C54.98,74.2 55.85,74.22 56.74,74.07 L87.35,68.86 C90.8,68.27 93.16,65.11 92.6,61.82 Z" fill="#176BC6"/>
  <path d="M123.94,74.46 C123.76,72.33 121.79,70.75 119.55,70.94 L107.81,71.93 L120.78,50.92 C121.24,50.18 121.44,49.34 121.37,48.5 C121.18,46.24 119.09,44.57 116.72,44.77 L97.25,46.4 C96.18,46.49 95.2,46.97 94.49,47.75 C93.76,48.55 93.41,49.58 93.5,50.63 C93.68,52.77 95.66,54.36 97.91,54.17 L109.26,53.21 L96.26,74.07 C95.79,74.82 95.58,75.68 95.66,76.54 C95.81,78.29 97.08,79.69 98.74,80.17 C99.26,80.32 99.81,80.38 100.38,80.33 L120.21,78.66 C122.45,78.48 124.12,76.59 123.94,74.46 Z" fill="#176BC6"/>
</svg>
